svgs/light/speakers.svg

<svg xmlns="http://www.w3.org/2000/svg" viewBox="0 0 640 512"><!-- Font Awesome Pro 6.0.0-alpha2 by @fontawesome - https://fontawesome.com License - https://fontawesome.com/license (Commercial License) --><path d="M464 192C499.375 192 528 163.375 528 128S499.375 64 464 64S400 92.625 400 128S428.625 192 464 192ZM464 96C481.625 96 496 110.375 496 128S481.625 160 464 160S432 145.625 432 128S446.375 96 464 96ZM464 312C450.781 312 440 322.781 440 336S450.781 360 464 360S488 349.219 488 336S477.219 312 464 312ZM576 0H352C316.654 0 288 28.652 288 64V448C288 483.346 316.654 512 352 512H576C611.346 512 640 483.346 640 448V64C640 28.652 611.346 0 576 0ZM608 448C608 465.672 593.674 480 576 480H352C334.326 480 320 465.672 320 448V64C320 46.326 334.326 32 352 32H576C593.674 32 608 46.326 608 64V448ZM464 224C402.125 224 352 274.125 352 336S402.125 448 464 448S576 397.875 576 336S525.875 224 464 224ZM464 416C419.875 416 384 380.125 384 336S419.875 256 464 256S544 291.875 544 336S508.125 416 464 416ZM152 336C152 349.219 162.781 360 176 360S200 349.219 200 336S189.219 312 176 312S152 322.781 152 336ZM240 128C240 92.625 211.375 64 176 64S112 92.625 112 128S140.625 192 176 192S240 163.375 240 128ZM144 128C144 110.375 158.375 96 176 96S208 110.375 208 128S193.625 160 176 160S144 145.625 144 128ZM256 16C256 7.162 248.836 0 240 0H64C28.654 0 0 28.652 0 64V448C0 483.346 28.654 512 64 512H240C248.836 512 256 504.836 256 496C256 487.162 248.836 480 240 480H64C46.326 480 32 465.672 32 448V64C32 46.326 46.326 32 64 32H240C248.836 32 256 24.836 256 16ZM242.375 264.859C247.281 257.516 245.281 247.578 237.938 242.688C219.562 230.453 198.156 224 176 224C114.25 224 64 274.25 64 336S114.25 448 176 448C198.156 448 219.562 441.547 237.938 429.312C245.281 424.422 247.281 414.484 242.375 407.141C237.469 399.734 227.531 397.781 220.188 402.687C207.094 411.391 191.812 416 176 416C131.875 416 96 380.109 96 336S131.875 256 176 256C191.812 256 207.094 260.609 220.188 269.312C227.562 274.219 237.5 272.266 242.375 264.859Z"/></svg>

<svg xmlns="http://www.w3.org/2000/svg" viewBox="0 0 640 512"><!--! Font Awesome Pro 6.3.0 by @fontawesome - https://fontawesome.com License - https://fontawesome.com/license (Commercial License) Copyright 2023 Fonticons, Inc. --><path d="M464 192c35.38 0 64-28.62 64-64s-28.62-64-64-64s-64 28.62-64 64S428.6 192 464 192zM464 96c17.62 0 32 14.38 32 32s-14.38 32-32 32s-32-14.38-32-32S446.4 96 464 96zM464 312c-13.22 0-24 10.78-24 24s10.78 24 24 24s24-10.78 24-24S477.2 312 464 312zM576 0h-224C316.7 0 288 28.65 288 64v384c0 35.35 28.65 64 64 64h224c35.35 0 64-28.65 64-64V64C640 28.65 611.3 0 576 0zM608 448c0 17.67-14.33 32-32 32h-224c-17.67 0-32-14.33-32-32V64c0-17.67 14.33-32 32-32h224c17.67 0 32 14.33 32 32V448zM464 224C402.1 224 352 274.1 352 336s50.13 112 112 112s112-50.13 112-112S525.9 224 464 224zM464 416c-44.13 0-80-35.88-80-80S419.9 256 464 256S544 291.9 544 336S508.1 416 464 416zM152 336c0 13.22 10.78 24 24 24s24-10.78 24-24S189.2 312 176 312S152 322.8 152 336zM240 128c0-35.38-28.62-64-64-64s-64 28.62-64 64s28.62 64 64 64S240 163.4 240 128zM144 128c0-17.62 14.38-32 32-32s32 14.38 32 32s-14.38 32-32 32S144 145.6 144 128zM256 16C256 7.162 248.8 0 240 0H64C28.65 0 0 28.65 0 64v384c0 35.35 28.65 64 64 64h176C248.8 512 256 504.8 256 496C256 487.2 248.8 480 240 480H64c-17.67 0-32-14.33-32-32V64c0-17.67 14.33-32 32-32h176C248.8 32 256 24.84 256 16zM242.4 264.9c4.906-7.344 2.906-17.28-4.438-22.17C219.6 230.5 198.1 224 175.9 224c-61.75 0-112 50.25-112 112S114.2 448 175.9 448c22.16 0 43.63-6.453 62-18.69c7.344-4.891 9.344-14.83 4.438-22.17c-4.906-7.406-14.84-9.359-22.19-4.453C207.1 411.4 191.8 416 176 416C131.9 416 96 380.1 96 336S131.9 256 176 256c15.81 0 31.09 4.609 44.19 13.31C227.6 274.2 237.5 272.3 242.4 264.9z"/></svg>
